assets/img/layout/icon-filter-sorting.svg

<svg xmlns="http://www.w3.org/2000/svg" width="20" height="20"><defs><clipPath id="a"><path fill="#d5d5d5" d="M0 0h20v20H0z"/></clipPath><clipPath id="b"><path fill="none" d="M0 0h20v20H0z"/></clipPath><style>.e{fill:#111}</style></defs><g clip-path="url(#a)"><g clip-path="url(#b)"><path class="e" d="M.6 3v1.5h10.7a.75.75 0 100-1.5zm10.7 4.2H.6v1.5h10.7a.8.8 0 000-1.5M.6 12.9h10.7a.8.8 0 100-1.5H.6zm0 4.2h7.7a.75.75 0 100-1.5H.6zM15.7 3v13"/><path stroke-linecap="round" stroke-miterlimit="10" stroke="#111" stroke-width="1.5" fill="none" d="M15.7 3v13"/><path d="M12.5 13.8l3.3 3.2 3.2-3.2" stroke-linejoin="round" stroke="#111" stroke-width="1.5" fill="none"/></g></g></svg>

<svg xmlns="http://www.w3.org/2000/svg" xmlns:xlink="http://www.w3.org/1999/xlink" width="20" height="20" viewBox="0 0 20 20"><defs><style>.a{fill:#d5d5d5;}.b,.f,.g{fill:none;}.c{clip-path:url(#a);}.d{clip-path:url(#b);}.e{fill:#111;}.f,.g{stroke:#111;stroke-width:1.5px;}.f{stroke-linecap:round;stroke-miterlimit:10;}.g{stroke-linejoin:round;}</style><clipPath id="a"><rect class="a" width="20" height="20"/></clipPath><clipPath id="b"><rect class="b" width="20" height="20"/></clipPath></defs><g class="c"><g transform="translate(10 10)"><g class="d" transform="translate(-10 -10)"><path class="e" d="M.6,3V4.5H11.3a.75.75,0,1,0,0-1.5ZM11.3,7.2H.6V8.7H11.3a.8.8,0,0,0,0-1.5M.6,12.9H11.3a.8.8,0,1,0,0-1.5H.6Zm0,4.2H8.3a.75.75,0,1,0,0-1.5H.6Z"/><line class="e" y2="13" transform="translate(15.7 3)"/><line class="f" y2="13" transform="translate(15.7 3)"/><path class="g" d="M12.5,13.8,15.8,17,19,13.8"/></g></g></g></svg>
